X: 181004
T: Lyons' Reel
S: Darley & McCall Collection 
Z: B.Black 
L: 1/8
M: 4/4
R: reel
K: G
BGEG BGED|AFDF A2 dc|BGEG (3BcB dB|(3ABA FA G4 :|
d3c Beed|BABA BGGB|d2 gf (3efe d2|egfa gfgB|
d2 gf (3efe dc|BABA BG (3GFG|BGGA (3BcB dB|\
(3ABA FA G4 ||
